static/assets/images/protocols/hop-exchange-mono.svg

<svg width="360" height="358" viewBox="0 0 360 358" fill="none" xmlns="http://www.w3.org/2000/svg">
<path d="M353.825 118.761L278.346 8.98959C266.507 -8.06944 239.867 0.830923 240.607 21.5984C241.347 40.8826 248.747 60.9084 265.767 86.1261C258.367 80.9342 154.028 1.57262 28.9702 43.8494C15.6504 49.0413 8.25054 60.1667 11.9505 73.5173C14.9104 85.3844 27.4902 92.8014 40.07 91.318C66.7096 86.8678 92.6092 84.6427 118.509 86.8678C144.408 89.0929 169.568 95.7682 193.248 106.894C216.927 118.019 237.647 135.078 257.627 153.621C279.826 175.13 307.206 220.373 307.206 220.373C308.869 223.042 311.375 225.076 314.326 226.152C317.276 227.227 320.501 227.282 323.486 226.307C330.886 223.34 334.585 215.181 331.626 207.764C325.762 192.34 318.582 177.451 310.166 163.263C319.786 166.971 327.926 171.421 338.285 168.455C346.425 166.971 353.825 161.038 356.785 153.621C359.327 148.046 360.391 141.908 359.872 135.801C359.354 129.694 357.271 123.824 353.825 118.761Z" fill="#000001"/>
<path d="M6.43819 238.317L82.0094 349.201C93.8637 366.317 119.795 356.643 119.054 335.805C117.2 312.555 108.711 290.334 94.6045 271.805C101.273 277.014 206.479 355.898 330.95 313.48C345.027 308.27 351.695 297.108 347.99 283.712C345.027 271.805 332.431 264.363 319.836 266.596C293.905 271.061 267.233 272.549 241.301 270.317C215.37 268.084 190.18 261.387 167.212 250.224C144.244 239.061 122.018 221.945 102.754 203.34C80.5276 181.758 53.1145 137.107 53.1145 137.107C51.3953 134.095 48.6329 131.824 45.3537 130.726C42.0744 129.628 38.5077 129.78 35.333 131.154C28.665 134.13 25.7014 142.316 27.9241 149.758C33.8333 164.98 41.0212 179.668 49.41 193.665C39.7784 189.944 31.6286 186.223 21.2561 188.456C13.1062 189.944 5.6973 195.898 2.73373 204.084C0.42933 209.641 -0.439394 215.693 0.20825 221.678C0.855894 227.663 2.9989 233.386 6.43819 238.317Z" fill="#000001"/>
</svg>

<svg xmlns="http://www.w3.org/2000/svg" fill="none" viewBox="0 0 360 358"><path fill="#000001" d="M353.825 118.761 278.346 8.99C266.507-8.07 239.867.83 240.607 21.598c.74 19.285 8.14 39.31 25.16 64.528-7.4-5.192-111.739-84.553-236.797-42.277-13.32 5.192-20.72 16.318-17.02 29.668 2.96 11.867 15.54 19.284 28.12 17.801 26.64-4.45 52.54-6.675 78.439-4.45s51.059 8.9 74.739 20.026c23.679 11.125 44.399 28.184 64.379 46.727 22.199 21.509 49.579 66.752 49.579 66.752a14.07 14.07 0 0 0 7.12 5.779 14.03 14.03 0 0 0 9.16.155c7.4-2.967 11.099-11.126 8.14-18.543a287.5 287.5 0 0 0-21.46-44.501c9.62 3.708 17.76 8.158 28.119 5.192 8.14-1.484 15.54-7.417 18.5-14.834a35.67 35.67 0 0 0-2.96-34.86M6.438 238.317 82.01 349.201c11.855 17.116 37.786 7.442 37.045-13.396a121.6 121.6 0 0 0-24.45-64c6.669 5.209 111.875 84.093 236.346 41.675 14.077-5.21 20.745-16.372 17.04-29.768-2.963-11.907-15.559-19.349-28.154-17.116-25.931 4.465-52.603 5.953-78.535 3.721s-51.121-8.93-74.089-20.093-45.194-28.279-64.458-46.884c-22.226-21.582-49.64-66.233-49.64-66.233a14.1 14.1 0 0 0-7.76-6.381 14.02 14.02 0 0 0-10.021.428c-6.668 2.976-9.632 11.162-7.409 18.604a288.5 288.5 0 0 0 21.486 43.907c-9.632-3.721-17.781-7.442-28.154-5.209-8.15 1.488-15.559 7.442-18.522 15.628a35.86 35.86 0 0 0 3.704 34.233"/></svg>
